src/images/twitter-logo.svg

<svg width="46" height="47" viewBox="0 0 46 47" fill="none" xmlns="http://www.w3.org/2000/svg">
<path d="M15.9489 39.1866C30.2927 39.1866 38.1384 27.3022 38.1384 16.9971C38.1384 16.6588 38.1384 16.3224 38.1156 15.9898C39.6421 14.8846 40.9595 13.5164 42.0061 11.9491C40.5827 12.5801 39.0726 12.994 37.5264 13.1769C39.1545 12.202 40.373 10.6688 40.9551 8.86255C39.4245 9.77082 37.7501 10.411 36.004 10.7555C34.8283 9.5045 33.2729 8.67597 31.5787 8.39824C29.8845 8.1205 28.146 8.40906 26.6324 9.21923C25.1188 10.0294 23.9145 11.316 23.2059 12.8798C22.4974 14.4436 22.3242 16.1973 22.7131 17.8695C19.6125 17.7141 16.5791 16.9084 13.8101 15.5047C11.041 14.101 8.59801 12.1307 6.63977 9.72162C5.64256 11.4382 5.33708 13.4704 5.78552 15.4043C6.23396 17.3383 7.40261 19.0286 9.05353 20.1312C7.81293 20.0953 6.59917 19.7615 5.51462 19.1581V19.2569C5.51536 21.0573 6.13877 22.8021 7.27913 24.1954C8.41949 25.5886 10.0066 26.5446 11.7714 26.9011C10.6231 27.2142 9.41825 27.2597 8.24958 27.0342C8.74784 28.5841 9.71813 29.9394 11.0247 30.9107C12.3313 31.8819 13.9088 32.4204 15.5365 32.4509C13.9193 33.7216 12.0675 34.661 10.0869 35.2154C8.1064 35.7698 6.036 35.9283 3.99414 35.6819C7.56081 37.9709 11.7109 39.1849 15.9489 39.179" fill="white"/>
</svg>

<?xml version="1.0" encoding="UTF-8"?>
<svg fill="none" viewBox="0 0 46 47" xmlns="http://www.w3.org/2000/svg">
<path d="m15.949 39.187c14.344 0 22.19-11.884 22.19-22.19 0-0.3383 0-0.6747-0.0228-1.0073 1.5265-1.1052 2.8439-2.4734 3.8905-4.0407-1.4234 0.631-2.9335 1.0449-4.4797 1.2278 1.6281-0.9749 2.8466-2.5081 3.4287-4.3144-1.5306 0.90827-3.205 1.5484-4.9511 1.893-1.1757-1.251-2.7311-2.0795-4.4253-2.3573-1.6942-0.27774-3.4327 0.01082-4.9463 0.82099s-2.7179 2.0968-3.4265 3.6606c-0.7085 1.5638-0.8817 3.3175-0.4928 4.9897-3.1006-0.1554-6.1339-0.9611-8.903-2.3648s-5.2121-3.374-7.1703-5.7831c-0.99721 1.7166-1.3027 3.7488-0.85425 5.6827 0.44844 1.934 1.6171 3.6243 3.268 4.7269-1.2406-0.0359-2.4544-0.3697-3.5389-0.9731v0.0988c7.4e-4 1.8004 0.62415 3.5452 1.7645 4.9385 1.1404 1.3932 2.7275 2.3492 4.4923 2.7057-1.1483 0.3131-2.3532 0.3586-3.5218 0.1331 0.49826 1.5499 1.4686 2.9052 2.7751 3.8765 1.3066 0.9712 2.8841 1.5097 4.5118 1.5402-1.6172 1.2707-3.469 2.2101-5.4496 2.7645-1.9805 0.5544-4.0509 0.7129-6.0928 0.4665 3.5667 2.289 7.7168 3.503 11.955 3.4971" fill="#fff"/>
</svg>
